storage/app/icons/phosphoricons/light/camera-light.svg

<svg xmlns="http://www.w3.org/2000/svg" fill="currentColor" viewBox="0 0 256 256"><path d="M208 58h-28.79L165 36.67a6 6 0 0 0-5-2.67H96a6 6 0 0 0-5 2.67L76.78 58H48a22 22 0 0 0-22 22v112a22 22 0 0 0 22 22h160a22 22 0 0 0 22-22V80a22 22 0 0 0-22-22m10 134a10 10 0 0 1-10 10H48a10 10 0 0 1-10-10V80a10 10 0 0 1 10-10h32a6 6 0 0 0 5-2.67L99.21 46h57.57L171 67.33a6 6 0 0 0 5 2.67h32a10 10 0 0 1 10 10ZM128 90a42 42 0 1 0 42 42 42 42 0 0 0-42-42m0 72a30 30 0 1 1 30-30 30 30 0 0 1-30 30"/></svg>

<svg xmlns="http://www.w3.org/2000/svg" viewBox="0 0 256 256" fill="currentColor"><path d="M208,58H179.21L165,36.67A6,6,0,0,0,160,34H96a6,6,0,0,0-5,2.67L76.78,58H48A22,22,0,0,0,26,80V192a22,22,0,0,0,22,22H208a22,22,0,0,0,22-22V80A22,22,0,0,0,208,58Zm10,134a10,10,0,0,1-10,10H48a10,10,0,0,1-10-10V80A10,10,0,0,1,48,70H80a6,6,0,0,0,5-2.67L99.21,46h57.57L171,67.33A6,6,0,0,0,176,70h32a10,10,0,0,1,10,10ZM128,90a42,42,0,1,0,42,42A42,42,0,0,0,128,90Zm0,72a30,30,0,1,1,30-30A30,30,0,0,1,128,162Z"/></svg>
